Elessar7040/Automated-Cardiac-Scanning-System-for-Ultrasonic-Robots/src/planning_node/test_results/nurbs_joint_data/joint_trajectory_test_4.csv
Segment,Point,Time(s),shoulder_joint_Position(rad),shoulder_joint_Velocity(rad/s),shoulder_joint_Acceleration(rad/s^2),upperarm_joint_Position(rad),upperarm_joint_Velocity(rad/s),upperarm_joint_Acceleration(rad/s^2),forearm_joint_Position(rad),forearm_joint_Velocity(rad/s),forearm_joint_Acceleration(rad/s^2),wrist1_joint_Position(rad),wrist1_joint_Velocity(rad/s),wrist1_joint_Acceleration(rad/s^2),wrist2_joint_Position(rad),wrist2_joint_Velocity(rad/s),wrist2_joint_Acceleration(rad/s^2),wrist3_joint_Position(rad),wrist3_joint_Velocity(rad/s),wrist3_joint_Acceleration(rad/s^2),Duration(s)
1,1,0.000000,0.000000,0.000000,-0.736749,0.000000,0.000000,0.000000,0.000000,0.000000,0.000000,0.000000,0.000000,0.000000,0.000000,0.000000,0.000000,0.000000,0.000000,0.000000,0.0
1,2,0.586181,-0.126576,-0.408155,-0.899956,0.102909,0.302075,0.592339,0.122362,0.418423,0.981690,-0.172609,-0.501704,-0.970278,0.129899,0.419576,0.926891,-0.077555,-0.255873,-0.578529,0.0
1,3,0.854355,-0.287581,-0.657631,-0.559695,0.217846,0.470858,0.413163,0.290803,0.724150,0.938915,-0.362730,-0.746607,-0.368160,0.295510,0.677562,0.586637,-0.179311,-0.430743,-0.501501,0.0
1,4,0.995374,-0.388394,-0.676658,0.595183,0.290206,0.520689,0.117791,0.406466,0.785636,-0.538123,-0.473326,-0.759451,0.386386,0.399522,0.694196,-0.675354,-0.247289,-0.458033,0.373851,0.0
1,5,1.111274,-0.462388,-0.614163,0.406661,0.351431,0.527542,-0.011941,0.493516,0.698744,-0.876919,-0.558470,-0.721722,0.216374,0.474952,0.617739,-0.554335,-0.297592,-0.399119,0.584890,0.0
1,6,1.234066,-0.534823,-0.595256,-0.086010,0.416122,0.531427,0.073768,0.572891,0.620995,-0.407893,-0.645507,-0.716605,-0.125071,0.546744,0.582696,-0.031515,-0.342315,-0.347339,0.270810,0.0
1,7,1.360556,-0.610795,-0.556368,0.651957,0.483923,0.489756,-0.681719,0.648225,0.531592,-0.942717,-0.737136,-0.668198,0.828061,0.620200,0.535020,-0.673514,-0.384115,-0.296759,0.496580,0.0
1,8,1.505550,-0.685048,-0.475049,0.514240,0.548226,0.404951,-0.534573,0.716025,0.423118,-0.617189,-0.825872,-0.565472,0.645406,0.691147,0.453685,-0.494167,-0.422256,-0.242522,0.284847,0.0
1,9,1.648904,-0.747835,-0.381930,0.790262,0.600753,0.315256,-0.721316,0.770303,0.325658,-0.746843,-0.900265,-0.451615,0.949347,0.751078,0.365494,-0.741192,-0.454079,-0.195748,0.369980,0.0
1,10,1.789246,-0.793570,-0.268924,0.809591,0.637817,0.215500,-0.690773,0.808573,0.223353,-0.701252,-0.954196,-0.316851,0.958481,0.794995,0.259188,-0.763828,-0.477868,-0.142381,0.385567,0.0
1,11,1.930316,-0.823472,-0.180281,0.476777,0.661362,0.140446,-0.398086,0.833121,0.147297,-0.402072,-0.989382,-0.212064,0.562082,0.823977,0.175482,-0.450934,-0.494127,-0.100029,0.229119,0.0
1,12,2.055080,-0.842011,-0.149428,-0.016611,0.675584,0.113353,-0.012701,0.848165,0.120755,0.003570,-1.011179,-0.175657,-0.018928,0.842132,0.147005,0.029777,-0.504708,-0.087114,-0.046150,0.0
1,13,2.130708,-0.853375,-0.118411,0.808894,0.684108,0.088234,-0.621829,0.857311,0.095074,-0.656782,-1.024536,-0.139160,0.951048,0.853363,0.117338,-0.791373,-0.511471,-0.071330,0.459595,0.0
1,14,2.212572,-0.860461,-0.090499,-0.121438,0.689327,0.066154,0.074140,0.862977,0.072172,0.091243,-1.032862,-0.106329,-0.142360,0.860418,0.090363,0.129068,-0.515829,-0.056375,-0.096864,0.0
1,15,2.260372,-0.864975,-0.073731,0.809489,0.692604,0.053361,-0.594114,0.866568,0.058595,-0.646476,-1.038165,-0.086617,0.951134,0.864937,0.073907,-0.807000,-0.518674,-0.046706,0.500791,0.0
1,16,2.314880,-0.867866,-0.057062,-0.189690,0.694685,0.041026,0.134488,0.868861,0.045244,0.149678,-1.041561,-0.067028,-0.222778,0.867841,0.057342,0.191633,-0.520521,-0.036539,-0.124215,0.0
1,17,2.345452,-0.869734,-0.046350,0.828828,0.696026,0.033294,-0.595372,0.870341,0.036739,-0.656966,-1.043755,-0.054444,0.973574,0.869718,0.046594,-0.833187,-0.521719,-0.029724,0.531515,0.0
1,18,2.386050,-0.871017,-0.037688,-0.392781,0.696948,0.027072,0.282138,0.871358,0.029873,0.311332,-1.045262,-0.044270,-0.461376,0.871008,0.037886,0.394851,-0.522542,-0.024170,-0.251896,0.0
1,19,2.407423,-0.871952,-0.029344,0.834819,0.697620,0.021078,-0.599658,0.872100,0.023259,-0.661708,-1.046361,-0.034469,0.980611,0.871948,0.029499,-0.839218,-0.523142,-0.018819,0.535382,0.0
1,20,2.455186,-0.872665,0.000000,0.624548,0.698132,0.000000,-0.448619,0.872665,0.000000,-0.495040,-1.047198,0.000000,0.733619,0.872665,0.000000,-0.627840,-0.523599,0.000000,0.400532,2.502552
2,1,0.000000,-0.872665,0.000000,0.668272,0.698132,0.000000,0.000000,0.872665,0.000000,0.000000,-1.047198,0.000000,0.000000,0.872665,0.000000,0.000000,-0.523599,0.000000,0.000000,0.0
2,2,0.450797,-0.804762,0.217440,0.406822,0.770581,0.173635,0.078681,0.773805,-0.288147,-0.419220,-0.955927,0.333321,0.796785,0.935293,0.187676,0.296831,-0.473783,0.174541,0.389914,0.0
2,3,0.656920,-0.746171,0.230815,-0.543293,0.809034,0.166015,-0.208848,0.700221,-0.310820,0.469461,-0.860250,0.368883,-0.968841,0.984025,0.219358,-0.173513,-0.424607,0.210066,-0.289857,0.0
2,4,0.844230,-0.712947,0.200627,0.298685,0.836283,0.212149,0.856609,0.650650,-0.337862,-0.940645,-0.809003,0.283332,0.125164,1.021917,0.261634,0.762380,-0.390600,0.224260,0.548627,0.0
2,5,0.968270,-0.685177,0.249865,0.452494,0.870868,0.328217,0.859935,0.599660,-0.463914,-0.919879,-0.772650,0.325562,0.565626,1.061730,0.348153,0.473180,-0.357486,0.307502,0.705794,0.0
2,6,1.073973,-0.656019,0.289907,0.268753,0.910783,0.381786,0.079917,0.545038,-0.520521,-0.072157,-0.734804,0.394418,0.695530,1.101404,0.359491,-0.302912,-0.320697,0.362471,0.275996,0.0
2,7,1.177426,-0.624573,0.286937,-0.317373,0.950712,0.344739,-0.768624,0.490798,-0.472806,0.959954,-0.690237,0.423383,-0.138028,1.136956,0.298286,-0.845815,-0.281705,0.347840,-0.541867,0.0
2,8,1.288515,-0.594589,0.242452,-0.491339,0.984429,0.259648,-0.784812,0.443994,-0.365293,1.002374,-0.644027,0.383201,-0.586455,1.165052,0.215185,-0.675149,-0.246293,0.279160,-0.708785,0.0
2,9,1.400999,-0.570405,0.181118,-0.594555,1.008701,0.175093,-0.714229,0.409206,-0.254382,0.963385,-0.604610,0.299461,-0.894535,1.185013,0.145918,-0.553444,-0.219348,0.196942,-0.747795,0.0
2,10,1.516395,-0.553414,0.128205,-0.351935,1.024211,0.113148,-0.392865,0.386185,-0.170487,0.536216,-0.575934,0.218442,-0.555543,1.198213,0.099028,-0.283918,-0.201538,0.130892,-0.433392,0.0
2,11,1.617415,-0.542386,0.114293,0.128960,1.033494,0.092798,0.022772,0.371893,-0.145574,-0.103052,-0.556903,0.198762,0.260898,1.206665,0.088290,0.116228,-0.190684,0.108882,0.036182,0.0
2,12,1.675498,-0.535450,0.104367,-0.564658,1.038936,0.079826,-0.520481,0.363200,-0.129365,0.761664,-0.544756,0.183584,-0.958427,1.212061,0.082056,-0.407187,-0.184276,0.094032,-0.610927,0.0
2,13,1.724070,-0.531112,0.079026,-0.464989,1.042140,0.057065,-0.401618,0.357903,-0.095610,0.607888,-0.537080,0.140325,-0.800423,1.215520,0.063583,-0.344308,-0.180500,0.067281,-0.472953,0.0
2,14,1.763971,-0.528369,0.058525,-0.534725,1.044062,0.040309,-0.412074,0.354624,-0.069464,0.664798,-0.532187,0.104670,-0.939550,1.217753,0.047972,-0.418475,-0.178233,0.047542,-0.485630,0.0
2,15,1.800492,-0.526605,0.037615,-0.542774,1.045247,0.025001,-0.377343,0.352551,-0.044022,0.646636,-0.529020,0.067620,-0.969385,1.219213,0.031242,-0.443312,-0.176835,0.029496,-0.445029,0.0
2,16,1.842783,-0.525466,0.028302,0.082440,1.045989,0.018386,0.048929,0.351228,-0.032830,-0.092445,-0.526968,0.051041,0.150451,1.220165,0.023700,0.071131,-0.175959,0.021695,0.057780,0.0
2,17,1.867513,-0.524732,0.020933,-0.532872,1.046464,0.013544,-0.344822,0.350378,-0.024244,0.617196,-0.525644,0.037773,-0.961528,1.220780,0.017554,-0.446835,-0.175398,0.015982,-0.406903,0.0
2,18,1.908466,-0.524233,0.017108,0.343571,1.046787,0.011067,0.222263,0.349800,-0.019813,-0.397897,-0.524743,0.030871,0.619972,1.221199,0.014347,0.288126,-0.175017,0.013060,0.262280,0.0
2,19,1.924850,-0.523872,0.014385,-0.537100,1.047021,0.009306,-0.347462,0.349382,-0.016659,0.622028,-0.524092,0.025957,-0.969195,1.221501,0.012063,-0.450424,-0.174742,0.010981,-0.410019,0.0
2,20,1.965424,-0.523599,0.000000,-0.332073,1.047198,0.000000,-0.214825,0.349066,0.000000,0.384581,-0.523599,0.000000,-0.599225,1.221730,0.000000,-0.278484,-0.174533,0.000000,-0.253503,2.004723
3,1,0.000000,-0.523599,0.000000,-0.396145,1.047198,0.000000,0.000000,0.349066,0.000000,0.000000,-0.523599,0.000000,0.000000,1.221730,0.000000,0.000000,-0.174533,0.000000,0.000000,0.0
3,2,0.713453,-0.624421,-0.248926,-0.425272,0.797037,-0.602523,-0.995456,0.233271,-0.286822,-0.492097,-0.451169,0.197285,0.378458,1.096264,-0.319511,-0.567710,-0.076492,0.233943,0.381468,0.0
3,3,1.012155,-0.730919,-0.413716,-0.492128,0.541822,-0.959867,-0.907616,0.110402,-0.467048,-0.479439,-0.363634,0.338989,0.395390,0.957916,-0.543596,-0.692250,0.022220,0.335564,0.043848,0.0
3,4,1.178211,-0.809113,-0.446718,0.298208,0.364920,-0.989918,0.930034,0.023596,-0.476416,0.571523,-0.299715,0.344828,-0.494607,0.854293,-0.584304,0.489949,0.078788,0.286146,-0.672354,0.0
3,5,1.336463,-0.875982,-0.454115,-0.428279,0.220196,-0.976207,-0.836821,-0.044465,-0.439839,-0.132396,-0.251491,0.313647,0.120986,0.768112,-0.570738,-0.354807,0.115444,0.250497,0.255868,0.0
3,6,1.473104,-0.942347,-0.453473,0.439302,0.078375,-0.969408,0.933969,-0.105899,-0.405864,0.596384,-0.207415,0.301606,-0.285816,0.686551,-0.548131,0.664953,0.152250,0.270200,0.011446,0.0
3,7,1.629805,-1.008358,-0.391473,0.365474,-0.062798,-0.839030,0.759407,-0.162645,-0.331836,0.371716,-0.163438,0.266611,-0.172217,0.608300,-0.461706,0.462147,0.194722,0.265597,-0.066786,0.0
3,8,1.799069,-1.069579,-0.321269,0.465036,-0.194341,-0.691504,0.985277,-0.213685,-0.268836,0.376312,-0.120686,0.229881,-0.261115,0.536524,-0.378389,0.525263,0.238757,0.235430,-0.284458,0.0
3,9,1.977486,-1.119687,-0.257647,0.279077,-0.302437,-0.556486,0.593945,-0.255814,-0.219532,0.199605,-0.083720,0.194473,-0.152909,0.477159,-0.308250,0.294497,0.276350,0.193027,-0.212638,0.0
3,10,2.131610,-1.155821,-0.202366,0.434721,-0.380595,-0.438047,0.935871,-0.287092,-0.177938,0.338791,-0.055707,0.159803,-0.297557,0.433424,-0.247572,0.490490,0.303376,0.149685,-0.347779,0.0
3,11,2.272661,-1.179840,-0.139694,0.433825,-0.432641,-0.302837,0.938010,-0.308664,-0.127332,0.363089,-0.036264,0.114730,-0.327780,0.403609,-0.175126,0.514051,0.320869,0.100256,-0.337006,0.0
3,12,2.413688,-1.195226,-0.105750,0.056842,-0.466020,-0.229512,0.121754,-0.323010,-0.100147,0.026804,-0.023343,0.090059,-0.026401,0.384024,-0.136015,0.048520,0.331656,0.072800,-0.062592,0.0
3,13,2.508459,-1.204931,-0.080414,0.441367,-0.487091,-0.174637,0.957590,-0.332351,-0.078048,0.411942,-0.014956,0.070018,-0.371109,0.371405,-0.105151,0.562215,0.338206,0.053706,-0.309258,0.0
3,14,2.612928,-1.211035,-0.060398,-0.047351,-0.500352,-0.131239,-0.103441,-0.338361,-0.059884,-0.056659,-0.009572,0.053603,0.049817,0.363345,-0.080124,-0.071632,0.342207,0.039225,0.022196,0.0
3,15,2.674727,-1.214889,-0.046382,0.448925,-0.508728,-0.100805,0.975532,-0.342208,-0.046354,0.446164,-0.006132,0.041458,-0.399270,0.358210,-0.061864,0.596506,0.344688,0.029800,-0.290619,0.0
3,16,2.755346,-1.217340,-0.042049,-0.419047,-0.514055,-0.091394,-0.910816,-0.344664,-0.042150,-0.420174,-0.003936,0.037687,0.375669,0.354935,-0.056199,-0.560169,0.346257,0.026904,0.268013,0.0
3,17,2.785934,-1.218982,-0.047319,0.430258,-0.517625,-0.102848,0.935178,-0.346311,-0.047435,0.431320,-0.002463,0.042412,-0.385643,0.352739,-0.063245,0.575069,0.347308,0.030273,-0.275267,0.0
3,18,2.814666,-1.220158,-0.034243,0.440388,-0.520182,-0.074427,0.957196,-0.347490,-0.034327,0.441476,-0.001409,0.030692,-0.394723,0.351167,-0.045767,0.588609,0.348060,0.021907,-0.281748,0.0
3,19,2.846748,-1.221042,-0.019524,0.349081,-0.522103,-0.042436,0.758737,-0.348376,-0.019572,0.349943,-0.000617,0.017500,-0.312884,0.349986,-0.026095,0.466570,0.348625,0.012491,-0.223332,0.0
3,20,2.906597,-1.221730,0.000000,0.384345,-0.523599,0.000000,0.835385,-0.349066,0.000000,0.385294,0.000000,0.000000,-0.344491,0.349066,0.000000,0.513703,0.349066,0.000000,-0.245893,2.953035
4,1,0.000000,-1.221730,0.000000,0.430172,-0.523599,0.000000,0.000000,-0.349066,0.000000,0.000000,0.000000,0.000000,0.000000,0.349066,0.000000,0.000000,0.349066,0.000000,0.000000,0.0
4,2,0.789944,-1.087514,0.288003,0.409303,-0.452716,0.151489,0.214042,-0.034242,0.682411,0.983844,0.123790,0.255313,0.341750,0.205475,-0.304180,-0.424236,0.448770,0.181764,0.192518,0.0
4,3,1.154131,-0.939618,0.437016,0.218416,-0.375054,0.239276,0.183888,0.317665,1.006729,0.285757,0.252682,0.373260,0.136638,0.050117,-0.437699,-0.078510,0.535196,0.229179,-0.057459,0.0
4,4,1.356126,-0.845098,0.440909,-0.271708,-0.321464,0.259042,-0.062963,0.529189,0.947790,-0.999306,0.331985,0.365649,-0.270989,-0.040540,-0.404568,0.444852,0.579846,0.207838,-0.132797,0.0
4,5,1.551955,-0.764047,0.460433,0.518651,-0.271962,0.284007,0.347946,0.695331,0.927679,0.883320,0.398312,0.367428,0.320131,-0.111102,-0.396290,-0.400733,0.617960,0.224245,0.329973,0.0
4,6,1.715114,-0.681329,0.488353,-0.218739,-0.220529,0.303962,-0.132373,0.859626,0.975160,-0.373358,0.462949,0.371893,-0.284953,-0.181629,-0.424052,0.096318,0.659379,0.253273,-0.006887,0.0
4,7,1.892590,-0.597963,0.419379,-0.524903,-0.168584,0.262603,-0.313670,1.027050,0.853169,-0.940353,0.524645,0.304596,-0.448617,-0.255432,-0.382300,0.349781,0.704225,0.233747,-0.197451,0.0
4,8,2.098781,-0.521873,0.354576,-0.150568,-0.120641,0.226433,-0.063370,1.184368,0.744766,-0.189655,0.578577,0.248330,-0.137874,-0.327341,-0.347298,0.015130,0.748517,0.214928,0.001243,0.0
4,9,2.276615,-0.461387,0.296333,-0.507486,-0.081455,0.195492,-0.288091,1.313575,0.641535,-0.985388,0.620385,0.204105,-0.359145,-0.388844,-0.310969,0.404203,0.786759,0.194244,-0.241098,0.0
4,10,2.443915,-0.419137,0.220826,-0.409363,-0.052908,0.152390,-0.235462,1.406680,0.492668,-0.823964,0.649347,0.151558,-0.278231,-0.435034,-0.248699,0.353541,0.815776,0.156956,-0.212759,0.0
4,11,2.586551,-0.392163,0.158930,-0.445759,-0.033774,0.115039,-0.282221,1.467845,0.364246,-0.953899,0.667890,0.109646,-0.300654,-0.466601,-0.190793,0.450699,0.835812,0.121588,-0.278922,0.0
4,12,2.714710,-0.375662,0.100522,-0.423634,-0.021480,0.076094,-0.297705,1.506250,0.235868,-0.957396,0.679333,0.069965,-0.290022,-0.487142,-0.127549,0.491183,0.848975,0.081968,-0.311191,0.0
4,13,2.853113,-0.365657,0.068543,-0.064208,-0.013694,0.054236,-0.034581,1.530065,0.164569,-0.128444,0.686342,0.048205,-0.041671,-0.500265,-0.091705,0.053308,0.857449,0.059389,-0.031536,0.0
4,14,2.948196,-0.359496,0.068595,0.102280,-0.008729,0.056067,0.103581,1.545000,0.167531,0.281471,0.690694,0.048627,0.076799,-0.508689,-0.095369,-0.182347,0.862921,0.062091,0.122258,0.0
4,15,3.001751,-0.355619,0.062610,-0.390768,-0.005520,0.052158,-0.309769,1.554532,0.154472,-0.939116,0.693451,0.044595,-0.274944,-0.514159,-0.089024,0.523950,0.866490,0.058134,-0.339417,0.0
4,16,3.048367,-0.353157,0.043998,-0.384532,-0.003450,0.037032,-0.321037,1.560636,0.109152,-0.949824,0.695209,0.031420,-0.274040,-0.517697,-0.063321,0.548157,0.868804,0.041415,-0.358076,0.0
4,17,3.093567,-0.351567,0.035927,0.040321,-0.002109,0.030301,0.034022,1.564585,0.089228,0.100165,0.696345,0.025670,0.028812,-0.519991,-0.051830,-0.058199,0.870304,0.033910,0.038080,0.0
4,18,3.123385,-0.350473,0.030585,-0.390724,-0.001187,0.025796,-0.329537,1.567301,0.075961,-0.970398,0.697126,0.021853,-0.279168,-0.521569,-0.044124,0.563676,0.871336,0.028868,-0.368789,0.0
4,19,3.155997,-0.349675,0.017385,-0.309445,-0.000513,0.014662,-0.260986,1.569285,0.043177,-0.768533,0.697697,0.012421,-0.221095,-0.522721,-0.025080,0.446418,0.872090,0.016409,-0.292072,0.0
4,20,3.215191,-0.349066,0.000000,-0.347422,0.000000,0.000000,-0.293016,1.570796,0.000000,-0.862854,0.698132,0.000000,-0.248229,-0.523599,0.000000,0.501206,0.872665,0.000000,-0.327918,3.253501
5,1,0.000000,-0.349066,0.000000,0.865335,0.000000,0.000000,0.000000,1.570796,0.000000,0.000000,0.698132,0.000000,0.000000,-0.523599,0.000000,0.000000,0.872665,0.000000,0.000000,0.0
5,2,0.840901,-0.043121,0.666221,0.947326,-0.118590,-0.238407,-0.305071,1.647478,0.191996,0.315804,0.984364,0.584048,0.763334,-0.168716,0.741656,1.001328,1.089122,0.431804,0.546333,0.0
5,3,1.276820,0.379116,1.070141,0.586954,-0.264966,-0.364282,-0.164731,1.775115,0.350629,0.334310,1.345177,0.877639,0.288665,0.293918,1.142761,0.471030,1.353375,0.626312,0.116295,0.0
5,4,1.532801,0.679041,1.064595,-0.872525,-0.365509,-0.367513,0.205861,1.879673,0.374036,-0.280488,1.582618,0.835506,-0.750216,0.607300,1.106207,-0.961803,1.518848,0.576653,-0.568580,0.0
5,5,1.767693,0.903955,1.043949,0.835054,-0.445901,-0.387030,-0.432647,1.959445,0.355902,0.157369,1.757246,0.817266,0.713274,0.839415,1.081720,0.903790,1.637910,0.564248,0.554290,0.0
5,6,1.946807,1.106422,1.079825,-0.549245,-0.523244,-0.421874,0.107947,2.026110,0.341979,-0.328231,1.916854,0.861777,-0.318480,1.049921,1.128190,-0.511433,1.749250,0.611145,-0.113781,0.0
5,7,2.135864,1.301012,0.938499,-0.903953,-0.601124,-0.381761,0.300519,2.085052,0.278324,-0.333051,2.074236,0.769372,-0.628302,1.254313,0.990133,-0.906058,1.862811,0.561364,-0.391452,0.0
5,8,2.348472,1.481246,0.748962,-0.896754,-0.675873,-0.314981,0.332339,2.137115,0.215713,-0.264830,2.224397,0.632219,-0.672444,1.445480,0.797336,-0.924431,1.973805,0.469829,-0.474196,0.0
5,9,2.576414,1.629453,0.541646,-0.916406,-0.739328,-0.234774,0.368114,2.179637,0.156629,-0.252559,2.351625,0.470434,-0.740585,1.604019,0.581150,-0.965552,2.068994,0.352594,-0.548821,0.0
5,10,2.822278,1.735936,0.436848,0.037203,-0.786330,-0.195676,-0.044669,2.210791,0.129899,0.031586,2.445719,0.391426,0.086407,1.718783,0.472440,0.056125,2.139701,0.294198,0.065556,0.0
5,11,2.979892,1.805381,0.371467,-0.920151,-0.817881,-0.170626,0.393376,2.231767,0.113866,-0.255804,2.508787,0.340864,-0.788967,1.794138,0.404095,-0.984998,2.187113,0.256099,-0.595084,0.0
5,12,3.122812,1.848590,0.238342,-0.867259,-0.838043,-0.112141,0.392081,2.245294,0.075509,-0.259361,2.549032,0.223742,-0.783956,1.841315,0.260721,-0.940124,2.217324,0.167853,-0.590028,0.0
5,13,3.275034,1.875130,0.181885,0.125981,-0.850709,-0.087603,-0.073440,2.253875,0.059583,0.053687,2.574285,0.174571,0.145033,1.870443,0.200050,0.145397,2.236248,0.130720,0.107050,0.0
5,14,3.362042,1.891611,0.150469,-0.863987,-0.858714,-0.073416,0.412112,2.259339,0.050211,-0.279120,2.590228,0.146203,-0.821651,1.888605,0.166002,-0.948121,2.248179,0.109363,-0.615746,0.0
5,15,3.455363,1.902018,0.124924,0.380065,-0.863831,-0.061639,-0.192850,2.262850,0.042355,0.134036,2.600416,0.122680,0.383294,1.900108,0.138188,0.423268,2.255794,0.091685,0.285822,0.0
5,16,3.503124,1.908625,0.119020,-0.849051,-0.867100,-0.058909,0.419159,2.265099,0.040531,-0.288084,2.606921,0.117227,-0.834228,1.907421,0.131754,-0.939319,2.260655,0.087588,-0.623433,0.0
5,17,3.546331,1.912933,0.092994,-0.344169,-0.869233,-0.046050,0.170430,2.266567,0.031690,-0.117284,2.611166,0.091637,-0.339145,1.912191,0.102956,-0.381039,2.263827,0.068465,-0.253387,0.0
5,18,3.581186,1.915940,0.069746,-0.863943,-0.870723,-0.034538,0.427820,2.267592,0.023768,-0.294411,2.614129,0.068728,-0.851334,1.915520,0.077218,-0.956495,2.266041,0.051349,-0.636060,0.0
5,19,3.622870,1.918158,0.040212,-0.498660,-0.871821,-0.019913,0.246934,2.268347,0.013703,-0.169931,2.616315,0.039625,-0.491382,1.917976,0.044520,-0.552080,2.267674,0.029605,-0.367128,0.0
5,20,3.685485,1.919862,0.000000,-0.869120,-0.872665,0.000000,0.430383,2.268928,0.000000,-0.296175,2.617994,0.000000,-0.856435,1.919862,0.000000,-0.962227,2.268928,0.000000,-0.639871,3.753976
6,1,0.000000,1.919862,0.000000,-0.723918,-0.872665,0.000000,0.000000,2.268928,0.000000,0.000000,2.617994,0.000000,0.000000,1.919862,0.000000,0.000000,2.268928,0.000000,0.000000,0.0
6,2,0.867705,1.647339,-0.566366,-0.749558,-0.747419,0.260063,0.343808,1.954007,-0.655077,-0.867948,2.241338,-0.771518,-1.002516,1.642528,-0.577531,-0.766256,1.942517,-0.664448,-0.856452,0.0
6,3,1.346352,1.255490,-0.856277,-0.200462,-0.567551,0.393344,0.093571,1.500623,-0.997014,-0.265347,1.710540,-1.150923,-0.223641,1.242645,-0.871867,-0.194087,1.486501,-0.976810,-0.128370,0.0
6,4,1.618359,1.012344,-0.794454,0.767988,-0.455782,0.365197,-0.352990,1.215884,-0.933240,0.877089,1.386065,-1.062906,1.003872,0.995583,-0.804502,0.801547,1.214249,-0.887190,0.878178,0.0
6,5,1.864293,0.841418,-0.760305,-0.601064,-0.377209,0.348415,0.266272,1.014300,-0.893430,-0.678996,1.156629,-1.030295,-0.896396,0.823255,-0.764575,-0.587883,1.024024,-0.863092,-0.824937,0.0
6,6,2.052882,0.685719,-0.831138,-0.059871,-0.306047,0.378164,0.008902,0.831898,-0.971854,-0.050407,0.943963,-1.142869,-0.164256,0.667021,-0.831563,-0.033781,0.844355,-0.979383,-0.288325,0.0
6,7,2.234394,0.533852,-0.767483,0.713855,-0.237256,0.346295,-0.337276,0.654648,-0.898878,0.800979,0.733759,-1.064543,0.964851,0.515514,-0.762583,0.743877,0.661742,-0.934217,0.741182,0.0
6,8,2.440606,0.389856,-0.651576,0.456266,-0.172587,0.291698,-0.213955,0.485299,-0.772518,0.475878,0.533524,-0.905028,0.644573,0.373129,-0.640915,0.484114,0.483910,-0.808811,0.523171,0.0
6,9,2.643913,0.266883,-0.533884,0.704263,-0.117736,0.237587,-0.319550,0.338146,-0.645122,0.780630,0.362942,-0.738458,0.997944,0.252903,-0.519126,0.716633,0.330363,-0.666807,0.877530,0.0
6,10,2.843747,0.174379,-0.411227,0.550933,-0.076694,0.182111,-0.248081,0.224951,-0.508455,0.618224,0.235471,-0.564578,0.781468,0.163598,-0.394801,0.555414,0.214786,-0.512763,0.699371,0.0
6,11,3.019118,0.111325,-0.298088,0.707453,-0.048838,0.131501,-0.314701,0.145952,-0.376875,0.847062,0.149316,-0.405845,0.983353,0.103498,-0.282735,0.690262,0.136367,-0.369701,0.891610,0.0
6,12,3.191253,0.070593,-0.223775,0.174692,-0.030908,0.098366,-0.078757,0.093746,-0.289492,0.187487,0.094161,-0.301843,0.252440,0.065151,-0.209595,0.179043,0.086062,-0.275456,0.228160,0.0
6,13,3.313392,0.044831,-0.189146,0.396342,-0.019602,0.082930,-0.175487,0.060073,-0.248905,0.487645,0.059563,-0.253292,0.545613,0.041160,-0.175476,0.381251,0.054468,-0.231384,0.496616,0.0
6,14,3.411034,0.028489,-0.129441,0.714797,-0.012446,0.056646,-0.313634,0.038385,-0.172447,0.935986,0.037758,-0.172415,0.959247,0.026072,-0.119243,0.664993,0.034540,-0.157614,0.876029,0.0
6,15,3.525637,0.018001,-0.111965,-0.494654,-0.007861,0.048918,0.215587,0.024314,-0.150756,-0.676546,0.023832,-0.148441,-0.651193,0.016450,-0.102508,-0.448671,0.021804,-0.135783,-0.596229,0.0
6,16,3.576421,0.011276,-0.115505,0.711890,-0.004924,0.050442,-0.311071,0.015237,-0.155976,0.957708,0.014926,-0.152934,0.944165,0.010302,-0.105567,0.652089,0.013656,-0.139918,0.863609,0.0
6,17,3.620667,0.006914,-0.082255,0.726106,-0.003019,0.035918,-0.317065,0.009343,-0.111147,0.981149,0.009152,-0.108878,0.961129,0.006317,-0.075149,0.663386,0.008373,-0.099615,0.879358,0.0
6,18,3.666422,0.003898,-0.064354,0.077217,-0.001702,0.028101,-0.033718,0.005267,-0.086959,0.104340,0.005160,-0.085184,0.102209,0.003561,-0.058795,0.070546,0.004721,-0.077937,0.093513,0.0
6,19,3.701612,0.001689,-0.043353,0.734949,-0.000737,0.018931,-0.320926,0.002282,-0.058581,0.993107,0.002235,-0.057385,0.972829,0.001543,-0.039608,0.671461,0.002045,-0.052503,0.890063,0.0
6,20,3.772219,0.000000,0.000000,0.677384,0.000000,0.000000,-0.295789,0.000000,0.000000,0.915322,0.000000,0.000000,0.896633,0.000000,0.000000,0.618869,0.000000,0.000000,0.820349,3.803949
